public/assets/images/icons/burger.svg

<?xml version="1.0" encoding="UTF-8" standalone="no"?>
<svg width="29px" height="20px" viewBox="0 0 29 20" version="1.1" xmlns="http://www.w3.org/2000/svg" xmlns:xlink="http://www.w3.org/1999/xlink" xmlns:sketch="http://www.bohemiancoding.com/sketch/ns">
    <!-- Generator: Sketch 3.4.1 (15681) - http://www.bohemiancoding.com/sketch -->
    <title>burger</title>
    <desc>Created with Sketch.</desc>
    <defs></defs>
    <g id="Page-1" stroke="none" stroke-width="1" fill="none" fill-rule="evenodd" sketch:type="MSPage">
        <path d="M28,4 L28,0 L7.10542736e-15,0 L7.10542736e-15,4 L28,4 Z M-1.77635684e-15,12 L-1.77635684e-15,8 L28.0149212,8 L28.0149212,12 L-1.77635684e-15,12 Z M-1.77635684e-15,16 L-1.77635684e-15,20 L28.0328661,20 L28.0328661,16 L-1.77635684e-15,16 Z" id="burger" fill="#fff" sketch:type="MSShapeGroup"></path>
    </g>
</svg>

<svg width="29" height="20" viewBox="0 0 29 20" xmlns="http://www.w3.org/2000/svg"><title>burger</title><path d="M28 4V0H0v4h28zM0 12V8h28.015v4H0zm0 4v4h28.033v-4H0z" fill="#fff" fill-rule="evenodd"/></svg>
